X:1
T:Keystone Rag
T:Keystone Rag
T:Rag
T:Willie Anderson
T:1921
T:1921
Z:1921
%%score { ( 1 2 ) | ( 3 4 ) }
L:1/8
Q:1/4=90
M:2/4
K:Eb
V:1 treble nm="Piano" snm="Pno."
V:2 treble 
V:3 bass 
V:4 bass 
V:1
"^Moderato" e'>c' b/g/ z | b>g e/B/ z | [F=Ae]/[FAe][FAe]/ [F_Ae][FAe] | [FAd]2 !>![Bdfb] z |: %4
!p!!f!"_-" (3e/f/e/d/e/ b/g/e/d/ | _d/b[dg]/- [dg]/e/d | (3c/_d/c/=B/c/ a/e/c/A/ | %7
 [E=A]/d[^Fc]/- [Fc]/d/[Fc] | (3B/c/B/=A/B/ [Ge]<[Bg] | [=A^f]/[Bg][Ge]/- [Ge] z | %10
 z [=Aeg]/f/ [Aeg][Aef] | z [_Adg]/f/ [Adg][Adf] | (3e/f/e/d/e/ b/g/e/d/ | _d/b[dg]/- [dg]/e/d | %14
 (3c/_d/c/=B/c/ a/e/c/A/ | [E=A]/d[^Fc]/- [Fc]/d/[Fc] | (3B/c/B/=A/B/ [Ge]<[Bg] | %17
 [=A^f]/[Bg][Ge]/- [Ge] z | [=Ac]<[eg] [df]<[db] |1 [Ge]!>![EB] !>![E=Ac]!>![D_ABd] :|2 %20
 [Ge][EB] [E=A][EB] |:!mf! =B/c[Aea]/- [Aea]2- | [Aea]/c/[da]/B/ [dg]/A/[df] | %23
 [=A^f]/[Bg][Ge]/- [Ge]2- | [Ge][GB] [Gc][G^c] | [Ad]/[AB]/[Ac]/[A^c]/ [Ad]/[AB]/[A=c]/[A^c]/ | %26
 [Ad]/[AB]/[Ac]/[A^c]/ [Ad]/[AB]/[A=c]/[Ad]/ | [Ge]/d/[Ge]/[Af]/- [Af]/[Ge]/[Af]/[=A^f]/ | %28
 [Geg][EB] [E=A][EB] | =B/c[Aea]/- [Aea]2- | [Aea]/c/[da]/B/ [dg]/A/[df] | %31
 [=A^f]/[Bg][Ge]/- [Ge]2- | [Ge][GB] [Gc][G^c] | [Ad]/[AB]/[Ac]/[A^c]/ [Ad]/[AB]/[A=c]/[A^c]/ | %34
 [Ad][cda] [Bdg][Adf] | e4- |1 [EGe][EB] [E=A][EB] :|2 [EG][^CG] [B,DFA] z || %38
!p!!f!"_-" (3e/f/e/d/e/ b/g/e/d/ | _d/b[dg]/- [dg]/e/d | (3c/_d/c/=B/c/ a/e/c/A/ | %41
 [E=A]/d[^Fc]/- [Fc]/d/[Fc] | (3B/c/B/=A/B/ [Ge]<[Bg] | [=A^f]/[Bg][Ge]/- [Ge] z | %44
 z [=Aeg]/f/ [Aeg][Aef] | z [_Adg]/f/ [Adg][Adf] |!p!!f!"_-" (3e/f/e/d/e/ b/g/e/d/ | %47
 _d/b[dg]/- [dg]/e/d | (3c/_d/c/=B/c/ a/e/c/A/ | [E=A]/d[^Fc]/- [Fc]/d/[Fc] | %50
 (3B/c/B/=A/B/ [Ge]<[Bg] | [=A^f]/[Bg][Ge]/- [Ge] z | [=Ac]<[eg] [df]<[db] | e2- e/F/^F/G/- |: %54
!ff! [Geg]4 | [Ge]>F ^F/G z/ | [EAe]2 [E^Fc]2 | [EB]2 [B,DA]2 | [EG]2 [Gc]2 | %59
 ^F/G[Gc]/- [Gc]/B/[Gc]/[G^c]/ | d/[ad']d/ [ad']c/[ac']/- | [ac']B/[db]/- [db]/F/^F/G/- | %62
!ff! [eg]4 | [Ge]>F ^F/G z/ | [EAe]2 [E^Fc]2 | [EB]2 [B,DA]2 | [EG]2 [Gc]2 | [=Ae]<g [_Ad]<b |1 %68
 [Ge][^Fc]/[GB]/- [GB]2 | [GB][^Fc]/[GB]/- [GB]/=F/^F/G/ :|2 ([Ge]/G/A/=A/ B/c/B/G/) | %71
 E z !^![EGBe] z |] %72
V:2
 [eg]2- [eg] z | [B-e]2 B z | x4 | x4 |: x4 | x4 | x4 | x4 | x4 | x4 | x4 | x4 | x4 | x4 | x4 | %15
 x4 | x4 | x4 | x4 |1 x4 :|2 x4 |: x4 | x4 | x4 | x4 | x4 | x4 | x4 | x4 | x4 | x4 | x4 | x4 | x4 | %34
 x4 | z [EB][E=A][E_A] |1 x4 :|2 x4 || x4 | x4 | x4 | x4 | x4 | x4 | x4 | x4 | x4 | x4 | x4 | x4 | %50
 x4 | x4 | x4 | [EG]2- [EG]/F/^F/G/ |: x4 | x4 | x4 | x4 | x4 | x4 | x4 | x4 | G4 | x4 | x4 | x4 | %66
 x4 | x4 |1 x4 | x4 :|2 x4 | x4 |] %72
V:3
 !arpeggio![E,B,G]2- [E,B,G] z | !arpeggio![E,,B,,G,]2- [E,,B,,G,] z | %2
 [C,C]/[C,C][C,C]/ [_C,_C][C,C] | [B,,B,]2 !>![B,,,B,,] z |: [E,,E,][G,B,E] [G,,G,][G,B,E] | %5
 [B,,B,]!>![E,,E,] !>![F,,F,]!>![G,,G,] | [A,,A,][E,A,C] [E,,E,][E,A,C] | %7
 [^F,,^F,][=A,,=A,] [C,C][E,E] | [B,,B,][G,B,E] [G,,G,][G,B,E] | [E,,E,][G,B,E] [C,,C,][G,B,E] | %10
 [F,,F,][F,=A,E] [C,,C,][F,A,E] | [F,,F,][F,_A,B,D] [B,,,B,,][F,A,B,D] | %12
 [E,,E,][G,B,E] [G,,G,][G,B,E] | [B,,B,]!>![E,,E,] !>![F,,F,]!>![G,,G,] | %14
 [A,,A,][E,A,C] [E,,E,][E,A,C] | !>![^F,,^F,]!>![=A,,=A,] !>![C,C]!>![E,E] | %16
 [B,,B,][G,B,E] [G,,G,][G,B,E] | [E,,E,][G,B,E] [C,,C,][G,B,E] | %18
 [F,,F,][F,=A,E] [B,,,B,,][F,A,B,D] |1 [E,B,]!>![G,,G,] !>![G,,G,]!>![F,,F,] :|2 [E,B,]G, ^F,G, |: %21
 [A,,A,][E,A,C] [C,C][_C,_C] | [B,,B,]!>![B,,,B,,] !>![C,,C,]!>![D,,D,] | %23
 [E,,E,][G,B,E] [B,,,B,,][G,B,E] | [E,,E,][G,B,E] [E,,E,][=E,,=E,] | %25
 [F,,F,][F,A,B,D]!8vb(! B,,,!8vb)![F,A,B,D] | [F,,F,][F,A,B,D]!8vb(! B,,,!8vb)![F,A,B,D] | %27
 [E,,E,][G,B,E] [C,C][_C,_C] | [B,,B,]G, ^F,G, | [A,,A,][E,A,C] [C,C][_C,_C] | %30
 [B,,B,]!8vb(!B,,,!8vb)! [C,,C,][D,,D,] | [E,,E,][G,B,E] [B,,,B,,][G,B,E] | %32
 [E,,E,][G,B,E] [E,,E,][=E,,=E,] | [F,,F,][F,A,B,D] [B,,,B,,][F,A,B,D] | %34
 [F,,F,][F,A,B,D] [B,,,B,,][F,A,B,D] | z _DC_C |1 [E,B,]G,^F,G, :|2 [E,B,][B,,=E,] [B,,F,] z || %38
 [E,,E,][G,B,E] [G,,G,][G,B,E] | [B,,B,]!>![E,,E,] !>![F,,F,]!>![G,,G,] | %40
 [A,,A,][E,A,C] [E,,E,][E,A,C] | !^![^F,,^F,]!^![=A,,=A,] !^![C,C]!^![E,E] | %42
 [B,,B,][G,B,E] [G,,G,][G,B,E] | [E,,E,][G,B,E] [C,,C,][G,B,E] | [F,,F,][F,=A,E] [C,,C,][F,A,E] | %45
 [F,,F,][F,_A,B,D] [B,,,B,,][F,A,B,D] | [E,,E,][G,B,E] [G,,G,][G,B,E] | %47
 [B,,B,]!>![E,,E,] !>![F,,F,]!>![G,,G,] | [A,,A,][E,A,C] [E,,E,][E,A,C] | %49
 !^![^F,,^F,]!^![=A,,=A,] !^![C,C]!^![E,E] | [B,,B,][G,B,E] [G,,G,][G,B,E] | %51
 [E,,E,][G,B,E] [C,,C,][G,B,E] | [F,,F,][F,=A,E] [B,,,B,,][F,A,B,D] | [E,B,]2 [E,,E,] z |: %54
 z/ (E,,/G,,/B,,/ E,/G,/B,/C/) | _DE =D_D | CB, =A,_A, | G,_G, F,!>![B,,,B,,] | %58
 [E,,E,][G,B,E] [B,,,B,,][G,B,E] | [E,,E,][G,B,E] [B,,,B,,][G,B,E] | %60
 [F,,F,][F,A,B,D] [B,,,B,,][F,A,B,D] | [F,,F,][F,A,B,D] [B,,,B,,][F,A,B,D] | %62
 z/ (E,,/G,,/B,,/ E,/G,/B,/C/) | _DE =D_D | CB, =A,_A, | G,_G, F,[B,,,B,,] | %66
 [E,,E,][G,B,E] [B,,,B,,][G,B,E] | [F,,F,][=A,CEF] B,,[F,_A,B,D] |1 %68
 [E,B,][E,=A,]/[E,B,]/- [E,B,]!^!B,, | !^![E,,E,][E,=A,]/[E,B,]/- [E,B,] z :|2 %70
 ([E,B,]/G,/A,/=A,/ B,/C/B,/G,/) | E, z !^![E,,E,] z |] %72
V:4
 x4 | x4 | x4 | x4 |: x4 | x4 | x4 | x4 | x4 | x4 | x4 | x4 | x4 | x4 | x4 | x4 | x4 | x4 | x4 |1 %19
 x4 :|2 x4 |: x4 | x4 | x4 | x4 | x2!8vb(! x!8vb)! x | x2!8vb(! x!8vb)! x | x4 | x4 | x4 | %30
 x!8vb(! x!8vb)! x2 | x4 | x4 | x4 | x4 | E,4- |1 x4 :|2 x4 || x4 | x4 | x4 | x4 | x4 | x4 | x4 | %45
 x4 | x4 | x4 | x4 | x4 | x4 | x4 | x4 | x4 |: x4 | x4 | x4 | x4 | x4 | x4 | x4 | x4 | x4 | x4 | %64
 x4 | x4 | x4 | x4 |1 x4 | x4 :|2 x4 | x4 |] %72

